X: 15433
T: Glen Helen
R: reel
M: 4/4
K: Ddorian
|:fe df eA AG|FA EA D4|1 AB cA BD GB|c E3 AB ^ce:|
[2 AB cA (3B^cd eg|^fa e^c d4:|
fc AF A3 d|c G3 EF GF|1 D2 d^f a f3|^fe d^c AB ce:|
[2 DE ^FG AB cA|(3B^cd ec d4:|

